X: 11918
T: Emotional Burrito
R: jig
M: 6/8
K: Dmajor
c|def edB|~A3 FAB|dBA def|fge fec|
def edB|~A3 FAB|def abf|afe d2:|
def a2f|abf a2f|gfd Bgf|edB BAB|
def a2f|abf a2f|gfd Bgf|edc d3|
def a2f|abf a2f|gfd Bgf|edB BAB|
def edB|~A3 FAB|def abf|afe d2||

